Numix/24/actions/gtk-undelete-rtl.svg

<?xml version="1.0" encoding="UTF-8" standalone="no"?>
<svg
   xmlns:dc="http://purl.org/dc/elements/1.1/"
   xmlns:cc="http://creativecommons.org/ns#"
   xmlns:rdf="http://www.w3.org/1999/02/22-rdf-syntax-ns#"
   xmlns:svg="http://www.w3.org/2000/svg"
   xmlns="http://www.w3.org/2000/svg"
   xmlns:sodipodi="http://sodipodi.sourceforge.net/DTD/sodipodi-0.dtd"
   xmlns:inkscape="http://www.inkscape.org/namespaces/inkscape"
   width="24"
   height="24"
   viewBox="0 0 24 24"
   id="svg2"
   version="1.1"
   inkscape:version="0.91 r13725"
   sodipodi:docname="gtk-undelete-rtl.svg">
  <metadata
     id="metadata24">
    <rdf:RDF>
      <cc:Work
         rdf:about="">
        <dc:format>image/svg+xml</dc:format>
        <dc:type
           rdf:resource="http://purl.org/dc/dcmitype/StillImage" />
        <dc:title></dc:title>
      </cc:Work>
    </rdf:RDF>
  </metadata>
  <defs
     id="defs22" />
  <sodipodi:namedview
     pagecolor="#ffffff"
     bordercolor="#666666"
     borderopacity="1"
     objecttolerance="10"
     gridtolerance="10"
     guidetolerance="10"
     inkscape:pageopacity="0"
     inkscape:pageshadow="2"
     inkscape:window-width="1366"
     inkscape:window-height="704"
     id="namedview20"
     showgrid="true"
     inkscape:zoom="15.97067"
     inkscape:cx="0.70667173"
     inkscape:cy="9.6282426"
     inkscape:window-x="0"
     inkscape:window-y="27"
     inkscape:window-maximized="1"
     inkscape:current-layer="svg2"
     inkscape:object-nodes="true">
    <inkscape:grid
       type="xygrid"
       id="grid4141" />
  </sodipodi:namedview>
  <g
     id="g4"
     transform="matrix(-1,0,0,1,24,0)">
    <path
       style="fill:#dc322f"
       d="m 19,8 0,12 c 0,2 0,2 -2,2 L 7,22 C 5,22 5,22 5,20 L 5,8 c 4,0 11,0 14,0 z"
       id="path6"
       inkscape:connector-curvature="0" />
  </g>
  <g
     style="fill:#ffffff;fill-opacity:0.66699997"
     id="g8"
     transform="matrix(-1,0,0,1,24,0)">
    <path
       d="M 7,10 7,20 9,20 9,10 Z"
       id="path10"
       inkscape:connector-curvature="0" />
    <path
       d="m 11,10 0,10 2,0 0,-10 z"
       id="path12"
       inkscape:connector-curvature="0" />
    <path
       d="m 15,10 0,10 2,0 0,-10 z"
       id="path14"
       inkscape:connector-curvature="0" />
  </g>
  <g
     id="g16"
     transform="matrix(-1,0,0,1,24,0)">
    <path
       style="fill:#dc322f"
       d="M 5,6 19,6 19,4 15,4 15,2 9,2 9,4 5,4 Z"
       id="path18"
       inkscape:connector-curvature="0" />
  </g>
  <path
     id="path4154"
     d="M 6.4210872,21.96845 C 5.8640162,21.734618 5.3757202,21.466399 4.9630752,21.163793 0.8985212,17.972672 3.6701202,13.213499 8.498067,13.213499 l 0,-2.750967 5.501933,4.12645 -5.501933,4.814192 0,-2.750967 c -4.1402048,0.69462 -4.1539588,1.320465 -2.0838578,4.807315 0,0 0.687742,0.694619 0,0.508928 z"
     style="color:#bebebe;fill:#859900;fill-opacity:1"
     inkscape:connector-curvature="0" />
</svg>

<svg xmlns="http://www.w3.org/2000/svg" viewBox="0 0 24 24">
 <g transform="matrix(-1,0,0,1,24,0)">
  <path d="m 19,8 0,12 c 0,2 0,2 -2,2 L 7,22 C 5,22 5,22 5,20 L 5,8 c 4,0 11,0 14,0 z" style="fill:#dc322f"/>
 </g>
 <g transform="matrix(-1,0,0,1,24,0)" style="fill:#fff;fill-opacity:0.667">
  <path d="m 7 10 0 10 2 0 0 -10"/>
  <path d="m 11 10 0 10 2 0 0 -10 z"/>
  <path d="m 15 10 0 10 2 0 0 -10 z"/>
 </g>
 <g transform="matrix(-1,0,0,1,24,0)">
  <path d="m 5 6 14 0 0 -2 -4 0 0 -2 -6 0 0 2 -4 0" style="fill:#dc322f"/>
 </g>
 <path d="m 6.421 21.968 c -0.557 -0.234 -1.045 -0.502 -1.458 -0.805 -4.065 -3.191 -1.293 -7.95 3.535 -7.95 l 0 -2.751 5.502 4.126 -5.502 4.814 0 -2.751 c -4.14 0.695 -4.154 1.32 -2.084 4.807 0 0 0.688 0.695 0 0.509 z" style="fill:#859900;fill-opacity:1;color:#bebebe"/>
</svg>
